assets/images/message.svg

<svg width="24" height="24" viewBox="0 0 24 24" fill="none" xmlns="http://www.w3.org/2000/svg">
<path d="M7.40005 6.32L15.8901 3.49C19.7001 2.22 21.7701 4.3 20.5101 8.11L17.6801 16.6C15.7801 22.31 12.6601 22.31 10.7601 16.6L9.92005 14.08L7.40005 13.24C1.69005 11.34 1.69005 8.23 7.40005 6.32Z" stroke="white" stroke-width="1.5" stroke-linecap="round" stroke-linejoin="round"/>
<path d="M10.11 13.65L13.69 10.06" stroke="white" stroke-width="1.5" stroke-linecap="round" stroke-linejoin="round"/>
</svg>

<svg fill="none" height="24" viewBox="0 0 24 24" width="24" xmlns="http://www.w3.org/2000/svg"><g stroke="#fff" stroke-linecap="round" stroke-linejoin="round" stroke-width="1.5"><path d="m7.40005 6.32 8.49005-2.83c3.81-1.27 5.88.81 4.62 4.62l-2.83 8.49c-1.9 5.71-5.02 5.71-6.92 0l-.84005-2.52-2.52-.84c-5.71-1.9-5.71-5.01 0-6.92z"/><path d="m10.11 13.65 3.58-3.59"/></g></svg>
